packages/symbols/svgs/outline/wave-sine-outline.svg

<svg width="24" height="24" viewBox="0 0 24 24" fill="none" xmlns="http://www.w3.org/2000/svg">
<g clip-path="url(#clip0_1150_5551)">
<path fill-rule="evenodd" clip-rule="evenodd" d="M0.132811 11.9617C0.280755 12.2023 0.528264 12.3722 0.819628 12.4472C0.909397 12.4733 1.0217 12.4867 1.12999 12.4867C1.49326 12.4867 2.02719 12.3195 2.21506 11.7932C2.56686 10.8128 3.18908 9.59349 3.97187 8.62399C4.76423 7.64262 5.67276 6.97581 6.58818 6.97581C7.58566 6.97581 8.39301 7.62464 9.10539 8.65983C9.81529 9.69141 10.3886 11.0454 10.9364 12.3421L10.9397 12.3501C11.5813 13.8688 12.2802 15.5233 13.2651 16.796C14.2587 18.0798 15.5632 19 17.4119 19C19.5433 19 21.1277 17.5641 22.1879 16.1114C23.2524 14.6529 23.8325 13.1192 23.9468 12.797C24.0403 12.5429 24.0082 12.2732 23.8688 12.0396L23.8678 12.0378C23.7209 11.7969 23.4679 11.624 23.1787 11.5522C23.0899 11.527 22.9804 11.5143 22.8745 11.5143C22.5102 11.5143 21.9729 11.6807 21.785 12.2069C21.4332 13.1869 20.8109 14.4062 20.0281 15.3758C19.2356 16.3572 18.3271 17.0242 17.4119 17.0242C16.4144 17.0242 15.6071 16.3754 14.8947 15.3402C14.1848 14.3086 13.6115 12.9546 13.0637 11.6579L13.0603 11.6499C12.4188 10.1312 11.7199 8.47668 10.735 7.20403C9.74137 5.92021 8.43688 5 6.58818 5C4.45712 5 2.87307 6.43595 1.81291 7.88841C0.747846 9.34758 0.167438 10.8819 0.0529124 11.2016C-0.039641 11.4551 -0.00939296 11.7279 0.132811 11.9617Z" fill="black"/>
</g>
<defs>
<clipPath id="clip0_1150_5551">
<rect width="24" height="24" fill="white"/>
</clipPath>
</defs>
</svg>

<svg width="24" height="24" viewBox="0 0 24 24" xmlns="http://www.w3.org/2000/svg"><g clip-path="url(#a)"><path fill-rule="evenodd" clip-rule="evenodd" d="M.133 11.962c.148.24.395.41.687.485.09.026.202.04.31.04.363 0 .897-.168 1.085-.694.352-.98.974-2.2 1.757-3.169.792-.981 1.7-1.648 2.616-1.648.998 0 1.805.649 2.517 1.684.71 1.031 1.284 2.385 1.831 3.682l.004.008c.641 1.519 1.34 3.173 2.325 4.446C14.26 18.08 15.563 19 17.412 19c2.131 0 3.716-1.436 4.776-2.889a14.087 14.087 0 0 0 1.759-3.314.87.87 0 0 0-.078-.757l-.001-.002a1.118 1.118 0 0 0-.69-.486 1.159 1.159 0 0 0-.303-.038c-.365 0-.902.167-1.09.693-.352.98-.974 2.2-1.757 3.169-.792.981-1.7 1.648-2.616 1.648-.998 0-1.805-.649-2.517-1.684-.71-1.031-1.284-2.385-1.831-3.682l-.004-.008c-.641-1.519-1.34-3.173-2.325-4.446C9.741 5.92 8.437 5 6.588 5c-2.13 0-3.715 1.436-4.775 2.888a14.158 14.158 0 0 0-1.76 3.314.87.87 0 0 0 .08.76Z"/></g><defs><clipPath id="a"><path fill="#fff" d="M0 0h24v24H0z"/></clipPath></defs></svg>
